icons/astro-config.svg

<svg xmlns="http://www.w3.org/2000/svg" viewBox="0 0 32 32"><path d="M15,2H6A2.006,2.006,0,0,0,4,4V26a2.006,2.006,0,0,0,2,2h6V24H6V22h6V20H6V18h6V16H6V14h6V12h2V4l8,8h2V11Z" style="fill:#757575"/><path d="M12,12V30H30V12ZM22,28c-.9,0-2.025-1.26654-2.025-3.005-.914,0-.975.46447-.975,1.005-.88147-.21252-1-1.15-1-2h6C24,25.919,22,25.78748,22,28Zm2.54169-6A2.50367,2.50367,0,0,1,22.234,20.359l-.9455-2.42053a.30537.30537,0,0,0-.5769,0L19.7661,20.359A2.50366,2.50366,0,0,1,17.45831,22H16l2.96472-7.58978A.62593.62593,0,0,1,19.54169,14h2.91662a.62593.62593,0,0,1,.577.41022L26,22Z" style="fill:#7c4dff"/></svg>

<svg xmlns="http://www.w3.org/2000/svg" viewBox="0 0 32 32"><path fill="#757575" d="M15 2H6a2.006 2.006 0 0 0-2 2v22a2.006 2.006 0 0 0 2 2h6v-4H6v-2h6v-2H6v-2h6v-2H6v-2h6v-2h2V4l8 8h2v-1Z"/><path fill="#7c4dff" d="M12 12v18h18V12Zm10 16c-.9 0-2.025-1.267-2.025-3.005-.914 0-.975.464-.975 1.005-.881-.213-1-1.15-1-2h6c0 1.919-2 1.787-2 4Zm2.542-6a2.504 2.504 0 0 1-2.308-1.641l-.946-2.42a.305.305 0 0 0-.576 0l-.946 2.42A2.504 2.504 0 0 1 17.458 22H16l2.965-7.59a.626.626 0 0 1 .577-.41h2.916a.626.626 0 0 1 .577.41L26 22Z"/></svg>
